X: 4
T: The Cock And The Hen
R: slip jig
M: 9/8
L: 1/8
K: Bmin
c |: BBB fdB FBd | BBB fdB cBA | BBB fdB FBd |[1 agf efd cBA :|[2 agf efd efg |||: afd dfg bge | afd ddd ecA | afd dfg bge |[1 fgf efd cBA :|[2 fgf efd cBA |||: d2e fdd edd | fdd gdd afe | d/e/de fdd edd |[1 agf efd cBA :|[2 agf efd cBA |]


Tune 93	Setting 12645

